X:136
T:Chasse. THO5.136, La
M:2/4
L:1/8
B:Thompson's Complete Collection of 200 Favourite Dances Vol.5
F:https://www.libraryofdance.org/manuals/1780c-Thompson-Compleat-5.pdf
Z:vmp. Peter Dunk 2024
Q:1/4=100
K:A
a|ee e/f/g/a/|eeeA|[fd][eA][fd][eA]|[fd][ec][ec]a|
ee e/f/g/a/|ee ee/f/|ed cB|A3:|
|:c'|aaac' &A4|aaac' &A4|bd'eb &A4|[a3A3] c'|
aaac' &A4|aaac' &A4|bd'eb &A4|[a3A3]:|
|:e|ceAe|ceAe|(c2-A)e|(c2-A)e|
ceAe|ceAe|cedB|A3:|
W:
W:The 1st Couple change sides and back again ./.
W:Lead down the middle, up again & cast off ./:
W:Hands 6 round :/.
W:Back again :/:
W:Lead outsides ./:. :./:

